plasma/desktoptheme/Materia-Color/icons/knotes.svg

<svg xmlns="http://www.w3.org/2000/svg" width="32" height="32" version="1.1">
 <defs id="materia">
  <style id="current-color-scheme" type="text/css">
   .ColorScheme-Background {color:#181818; } .ColorScheme-ButtonBackground { color:#343434; } .ColorScheme-Highlight { color:#4285f4; } .ColorScheme-Text { color:#dfdfdf; } .ColorScheme-ViewBackground { color:#242424; } .ColorScheme-NegativeText { color:#f44336; } .ColorScheme-PositiveText { color:#4caf50; } .ColorScheme-NeutralText { color:#ff9800; }
  </style>
 </defs>
 <g id="22-22-knotes">
  <path style="opacity:0.001" d="m 32,10 h 22 c 0,0 0,0 0,0 v 22 c 0,0 0,0 0,0 H 32 c 0,0 0,0 0,0 V 10 c 0,0 0,0 0,0 z"/>
  <path style="fill:currentColor" class="ColorScheme-Text" d="M 36.933594,13 C 36.000254,13 36,14.230469 36,14.230469 V 27.769531 C 36,27.769531 36.000254,29 36.933594,29 H 44 l 6,-6 V 14.230469 C 50,12.999699 49.066406,13 49.066406,13 Z M 38,16 h 10 v 2 H 38 Z m 0,4 h 10 v 2 H 38 Z m 0,4 h 6 v 2 h -6 z"/>
 </g>
 <g id="knotes">
  <path style="opacity:0.001" d="m 0,-1e-6 h 32.000001 c 0,0 0,0 0,0 V 32 c 0,0 0,0 0,0 H 0 c 0,0 0,0 0,0 V -1e-6 c 0,0 0,0 0,0 z"/>
  <path style="fill:currentColor" class="ColorScheme-Text" d="M 6.4003906 4 C 5.0003806 4 5 5.8457031 5 5.8457031 L 5 26.154297 C 5 26.154297 5.0003806 28 6.4003906 28 L 17 28 L 26 19 L 26 5.8457031 C 26 3.9995482 24.599609 4 24.599609 4 L 6.4003906 4 z M 8 8 L 23 8 L 23 11 L 8 11 L 8 8 z M 8 14 L 23 14 L 23 17 L 8 17 L 8 14 z M 8 20 L 17 20 L 17 23 L 8 23 L 8 20 z"/>
 </g>
</svg>

<?xml version="1.0" encoding="UTF-8"?>
<svg width="32" height="32" version="1.1" xmlns="http://www.w3.org/2000/svg">
 <defs id="materia">
  <style id="current-color-scheme" type="text/css">.ColorScheme-Background {color:#181818; } .ColorScheme-ButtonBackground { color:#343434; } .ColorScheme-Highlight { color:#4285f4; } .ColorScheme-Text { color:#dfdfdf; } .ColorScheme-ViewBackground { color:#242424; } .ColorScheme-NegativeText { color:#f44336; } .ColorScheme-PositiveText { color:#4caf50; } .ColorScheme-NeutralText { color:#ff9800; }</style>
 </defs>
 <g id="22-22-knotes">
  <path d="m32 10h22v22h-22v-22z" opacity=".001"/>
  <path class="ColorScheme-Text" d="m36.934 13c-0.93334 0-0.93359 1.2305-0.93359 1.2305v13.539s2.54e-4 1.2305 0.93359 1.2305h7.0664l6-6v-8.7695c0-1.2308-0.93359-1.2305-0.93359-1.2305zm1.0664 3h10v2h-10zm0 4h10v2h-10zm0 4h6v2h-6z" fill="currentColor"/>
 </g>
 <g id="knotes">
  <path d="m0-1e-6h32v32h-32v-32z" opacity=".001"/>
  <path class="ColorScheme-Text" d="m6.4004 4c-1.4 0-1.4004 1.8457-1.4004 1.8457v20.309s3.806e-4 1.8457 1.4004 1.8457h10.6l9-9v-13.154c0-1.8462-1.4004-1.8457-1.4004-1.8457h-18.199zm1.5996 4h15v3h-15v-3zm0 6h15v3h-15v-3zm0 6h9v3h-9v-3z" fill="currentColor"/>
 </g>
</svg>
